X: 27762
T: Morning Thrush, The
R: reel
M: 4/4
K: Dmajor
|:ag|f2ef d2AF|dAAF egfe|dDAF DF~F2|ABdf egfe|
dAAF dA~A2|BAFA dDDE|F/E/DFA defa|1 afef db:|2 afef d3c||
dffe [f2F2D2]af|[g3G3D3]e fAfe|d3e faaf|gbfb eAce|
dffe faaf|bfaf efdB|ADFA defa|1 afef d3c:|2 afef d2AF||
d2AF BdAF|~D3B ADFA|dFF2 dF~F2|ABdf egfe|
d2AF DF~F2|AdFA DG~G2|ABde fagb|1 afef d2AF:|2 afef db||

